!!!OTL: Maria's Wallfahrt.
!!!OTL-incipit: MARIA GING AUS WANDERN
!!!ARE: Europa, Mitteleuropa, Deutschland, Niederrhein
!!!SCT: Z1014
!!!TXL: @@DE
!!!YEM: Copyright 1995, estate of Helmut Schaffrath.
**kern	**text
*ICvox	*
*M2/4	*
*k[]	*
*a:	*
!LO:TX:a:t=(Aus der Ʒeit der Geißeler, am Niederrhein erhalten.)	!
{8e	Ma-
=1	=1
8.a	-ri-
16b/	-a
8cc	ging
8a	aus
=2	=2
8b/	wan-
8g	-dern,
4r}	.
=3	=3
{4b	ſo
8a	fern
8e	in's
=4	=4
16aL	frem-
16gJ	.
8f#	-de
8e	Land,
8r}	.
=5	=5
{4a	ſo
8b/	fern
8ee	in's
=6	=6
16ddL	frem-
16dd#J	.
8ee	-de
8b}	Land,
{(16ccL	bis
16bJ)	.
=7	=7
16aL	ſie
16g#J	.
16a	Gott
16b/	den
8cc	Her-
8b	-ren
=8	=8
4a	fand!
8r}	.
==	==
!!!Ag: Romanze, Ballade, Maria, geistlich, Geissler - Lied
!!!ONB: ESAC (Essen Associative Code) Database: ZUCCAL
!!!AMT: simple duple
!!!AIN: vox
!!!EED: Helmut Schaffrath
!!!EEV: 1.0
!!!GTL: I. Volks- Leuschen.
!!!URL-scan: https://www.digitale-sammlungen.de/de/view/bsb11160573?page=44
!!!ENC: Anna Maria Matuszewska
!!!EEV: 2025/01/31
*-	*-
